X: 36
T:The Trefforest Waltz
M:3/4
L:1/8
Q:200
S:Robin Huw Bowen
R:Waltz
A:Wales
Z:brian_martin12345@yahoo.com
K:C
G2|c2cGce|c2cGce|c2cGce|ag fe dc|B2BGBd|B2BGBd|g2gefd|c4:||!
gf|e2f2g2|a4fe|d2e2f2|g4ed|c2d2e2|f2g2a2|ga gf ed|c4:||!
G2|c2cGce|edd2c2|B2BGBd|dcc2G2|c2cGce|edd2c2|B2BGBd|c4:||
